!!!OTL: 976b. Rosa.
!!!ARE: Europa, Mitteleuropa, Deutschland
!!!SCT: E0976
!!!TXL: @@NLD
!!!YEM: Copyright 1995, estate of Helmut Schaffrath.
**kern	**text
*ICvox	*
*M6/8	*
*k[]	*
*a:	*
=1	=1
!LO:TX:a:t=Allegretto.	!
!LO:TX:a:t=Coussemaker Nr. 107, S. 330.	!
{4a	Ro-
8ee	-sa,
8ee	wil-
8ee	-len
8dd	wij
=2	=2
4.ee	dansen?
4cc}	.
{8cc	danst,
=3	=3
4.dd	Ro-
4cc	-sa,
8cc	danst
=4	=4
4.dd	Ro-
4.cc}	-sa!
=5	=5
{4a	Ros'
8cc	he
8cc	bloemen
8b	.
8a	op
=6	=6
4g	heu-
8e	-ren
4.e}	hoed.
=7	=7
{8a	Ʒij
8b/	had-
8cc	-de
4b/	geld,
8a	maer
=8	=8
4g	wei-
8e	-nig
4e}	goed.
{8ee	Danst,
=9	=9
4.ee	Ro-
(8ccqq	.
4.b)	-sa
=10	=10
[4.a	-zoet!
4a]	.
8r}	.
==	==
!!!Ag: Tanz - Lied, Reigen
!!!ONB: ESAC (Essen Associative Code) Database: ERK2
!!!AMT: compound duple
!!!AIN: vox
!!!EED: Helmut Schaffrath
!!!EEV: 1.0
!!!GTL: Tanz- und Spiellieder.
!!!URL-scan: https://rosdok.uni-rostock.de/mcrviewer/recordIdentifier/rosdok_ppn745177662/iview2/phys_0746.iview2?x=-167.68545784026423&y=1794.3944845539518&scale=0.6546206717328796&rotation=0&layout=singlePageLayout
!!!ENC: Anna Maria Matuszewska
!!!EEV: 2024/12/20
*-	*-
